X:109
T: DER KIRSCHBAUM HAT SEIN LAUB VERLORN
N: K2119A
O: Europa, Mitteleuropa, Deutschland, Darmstadt
R: Kinder - Lied, Reigen, Tanz - Spiel
M: 4/4
L: 1/8
K: D
D2 | A2A2B2B2 | A3GF2
D2 | A2A2B2B2 | A4F2
D2 | A2A2B2B2 | A3GF2
dd | A4F2dd | A4F2

@@@ Tune index: 7446
